!!!COM:	Bach, Johann Sebastian
!!!OMV:	Oh God, how many heart pains
!!!OTL:	Oh God, how many heart pains
**kern	**fb	**kern	**kern	**kern	**kern	**kern	**kern	**kern	**kern
*part9	*part9	*part8	*part7	*part6	*part5	*part4	*part3	*part2	*part1
*staff9	*	*staff8	*staff7	*staff6	*staff5	*staff4	*staff3	*staff2	*staff1
*I"Continuo	*	*I"Voice	*I"Voice	*I"Voice	*I"Voice	*I"Timpani	*I"C Trumpet	*I"C Trumpet	*I"C Trumpet
*I'Cont.	*	*I'V	*I'V	*I'V	*I'V	*I'Timp.	*I'C Tpt.	*I'C Tpt.	*I'C Tpt.
*clefF4	*	*clefF4	*clefGv2	*clefG2	*clefG2	*clefF4	*clefG2	*clefG2	*clefG2
*Trd0c0	*	*	*	*	*	*	*	*	*
*k[]	*	*k[]	*k[]	*k[]	*k[]	*k[]	*k[]	*k[]	*k[]
*M3/4	*	*M3/4	*M3/4	*M3/4	*M3/4	*M3/4	*M3/4	*M3/4	*M3/4
=	=	=	=	=	=	=	=	=	=
4C	.	4C	4e	4g	4cc	4C	4cc	4ee	4gg
4c	.	4c	4e	4g	4cc	4C	4e	4cc	4gg
4B	6	4B	4d	4g	4gg	4GG	4g	4dd	4gg
=3	=3	=3	=3	=3	=3	=3	=3	=3	=3
4.c	.	4.c	4.c	4.g	4.ee	4.C	4.cc	4.ee	4.gg
8B	6	8B	8G	8g	8dd	8C	8cc	8ee	8gg
4A	#6\	4A	4c	4f#X	4cc	4C	4cc	4ff#X	4aa
=4	=4	=4	=4	=4	=4	=4	=4	=4	=4
2G	.	4G	4g	4d	4.b	4GG	4dd	4gg	4bb
.	.	4GG	4G	4g	.	4GG	4g	4dd	4gg
.	.	.	.	.	8a	.	.	.	.
4F	6 4 2	4F	4d	4g	4g	4GG	4dd	4gg	4bb
=5	=5	=5	=5	=5	=5	=5	=5	=5	=5
4E	6	4E	4c	4g	4cc	4C	4ee	4gg	4ccc
4D	6	4D	4F	4b	4dd	4GG	4ff	4gg	4bb
4C	.	4C	4c	4g	8eeL	4C	8eeL	4gg	8cccL
.	.	.	.	.	8ffJ	.	8ccJ	.	8aaJ
=6	=6	=6	=6	=6	=6	=6	=6	=6	=6
4G	.	4G	4d	4g	2dd	8GGL	2dd	2gg	2bb
.	.	.	.	.	.	16GGL	.	.	.
.	.	.	.	.	.	16GGJJ	.	.	.
4GG	.	4GG	4B	4f	.	8GGL	.	.	.
.	.	.	.	.	.	8GGJ	.	.	.
4CC	.	4C	4G	4e	4cc	4C	4ee	4gg	4ccc
=7	=7	=7	=7	=7	=7	=7	=7	=7	=7
4C	.	4C	4.e	4.g	4.ee	2.r	2.r	4.ee	4.gg
4E	6	4E	.	.	.	.	.	.	.
.	.	.	8e	8g	8dd	.	.	16ggLL	8bb-X
.	.	.	.	.	.	.	.	16ffJJ	.
4AA	#	4A	8eL	4c#X	4ee	.	.	8eeL	8aaL
.	.	.	8c#XJ	.	.	.	.	16ffL	8ggJ
.	.	.	.	.	.	.	.	16eeJJ	.
=8	=8	=8	=8	=8	=8	=8	=8	=8	=8
2.D	.	2.D	2.d	2.a	2.ff	2.r	2.r	2.dd	2.ff
=9	=9	=9	=9	=9	=9	=9	=9	=9	=9
!!pagebreak:original
4A	.	4A	4.e	4.a	4.ee	4C	4e	2.r	4.cc
4G	6 4 2	4G	.	.	.	4r	4r	.	.
.	.	.	8c	8a	8ff	.	.	.	8dd
4F	6 4 2	4F	8BL	4d	4gg	4r	4r	.	4dd
.	.	.	8AJ	.	.	.	.	.	.
=10	=10	=10	=10	=10	=10	=10	=10	=10	=10
4.E	6	4.E	4G	4c	4.gg	4.C	4.g	4.cc	8eeL
.	.	.	.	.	.	.	.	.	8ddJ
.	.	.	4B	4g	.	.	.	.	8eeL
8D	6	8D	.	.	8ff	8GG	8g	8dd	8ffJ
4C	.	4C	4c	4g	4ee	4C	4cc	8eeL	8ggL
.	.	.	.	.	.	.	.	8ffJ	8aaJ
=11	=11	=11	=11	=11	=11	=11	=11	=11	=11
2.GG	.	2.GG	2.B	2.g	2.dd	2.GG	2.dd	2.gg	2.bb
=12	=12	=12	=12	=12	=12	=12	=12	=12	=12
4G	.	4G	4B	4d	4g	4GG	4g	4dd	[2.gg
8FL	6 4 2	8FL	4d	4d	4a	2GG	2g	2dd	.
8EJ	.	8EJ	.	.	.	.	.	.	.
8FL	6 4 2	8FL	4G	4d	4b	.	.	.	.
8DJ	.	8DJ	.	.	.	.	.	.	.
=13	=13	=13	=13	=13	=13	=13	=13	=13	=13
4E	6	4E	4G	4g	4cc	4C	4g	4cc	8ggL]
.	.	.	.	.	.	.	.	.	8ffJ
4BB	6 5	4BB	4G	4g	4dd	4GG	4dd	4ff	8ggL
.	.	.	.	.	.	.	.	.	8aaJ
4C	.	4C	8GL	4g	8.eeL	4C	8ccL	8eeL	8ggL
.	.	.	8cJ	.	.	.	8eJ	8ccJ	8aaJ
.	.	.	.	.	16ffJk	.	.	.	.
=14	=14	=14	=14	=14	=14	=14	=14	=14	=14
4G	4	4G	4c	2g	2dd	2GG	2g	2dd	8ggL
.	.	.	.	.	.	.	.	.	16aaL
.	.	.	.	.	.	.	.	.	16bbJJ
4GG	3	4GG	4B	.	.	.	.	.	4bb
4C;	.	4C;	4G;	4e;	4cc;	4C;	4g;	4ee;	4ccc;
=||	=||	=||	=||	=||	=||	=||	=||	=||	=||
*-	*-	*-	*-	*-	*-	*-	*-	*-	*-
!!!system-decoration: s1,s2,s3,s4,s5,s6,s7,s8,s9
